src/assets/healthPage/general.svg

<svg height="88" viewBox="0 0 88 88" width="88" xmlns="http://www.w3.org/2000/svg" xmlns:xlink="http://www.w3.org/1999/xlink"><mask id="a" fill="#fff"><path d="m0 0h88v88h-88z" fill="#fff" fill-rule="evenodd"/></mask><path d="m26.5958827 42.4758751c.1309337.3261686.2038879.6727011.2155736 1.0239745 0 .4042005-.1616802.808401-.2425203 1.1856548-.1785266.7187656-.3135055 1.4476519-.4042004 2.1826826-.7310355 7.0211543 2.4580023 13.8755147 8.2995832 17.8387146.7144153.4860029 1.56124.7400503 2.4252029.7275609h.4311472c2.1429348-.3576174 3.7080854-2.2198039 3.6916977-4.3923119v-5.3893398c-.0365073-.8363662.2611237-1.6529124.8272728-2.2696105.566149-.616698 1.354326-.9829069 2.1907575-1.0178867 1.732162.2490319 2.9851055 1.7830095 2.8832968 3.5300175v5.2007129c.0218371 2.2841874 1.7908506 4.1703542 4.0689515 4.3384185.9100465.045097 1.8096393-.2105767 2.5599364-.7275609 6.6561917-4.2883278 9.8420419-12.339643 7.9223295-20.0213972 0-.4042005-.1886269-.7814543-.2425203-1.1856548.0119151-.3487722.0754821-.6938498.1886269-1.0239745l.2155736-.7545076c.5954135-2.5540609.9116462-5.1652396.9431344-7.787596.0860318-2.3180322-.3370796-4.6267485-1.2395481-6.7636214-1.3309004-2.7138737-4.0400074-4.4820314-7.0600351-4.6078855-3.4754901-.0439885-6.9145264.7120463-10.0511187 2.2096293l-.808401-.2964137-.4311472-.1616801c-.889241-.2964137-1.8054288-.6197741-2.6946698-.8892411-1.01603-.3029449-2.0513364-.5370141-3.0988704-.7006142-.5619828-.0849977-1.1292873-.1300218-1.697642-.1347335-.3772538 0-1.886269 0-2.2635227 0-.6716918.0573663-1.3329999.2023105-1.9671091.4311472-1.0036083.3266748-1.923415.8693608-2.6946698 1.5898552-.7928108.7714477-1.4327836 1.6856945-1.886269 2.6946699-.9281954 2.1291028-1.3523901 4.4437309-1.2395481 6.7636214.0061527 2.632862.3227162 5.2558163.9431344 7.8145427zm4.9581926-12.9613622c.1658111-.3672514.4041173-.6972139.7006142-.9700811.2220283-.2166923.4887372-.3822358.7814543-.4850406.1785689-.0278031.360365-.0278031.5389339 0h1.7515355 1.0778679c.7928491.125874 1.5761388.3059406 2.3443628.538934.8353477.2425203 1.6437487.5389339 2.506043.8353476h.4042005c.7996618.3101412 1.566851.6982487 2.2904694 1.1587081 2.080767 1.50382 4.6400372 2.1939603 7.1947686 1.9401623 1.004715-.2134204 1.8007233-.9794545 2.0525317-1.9752422.2518083-.9957876-.084382-2.0481248-.866877-2.7134834.5022505-.0389648 1.0067647-.0389648 1.5090152 0 1.134407-.0528473 2.1923628.5713466 2.6946699 1.5898552.5487282 1.4235719.7697716 2.9524555.6467207 4.473152-.0297657 2.2145276-.3008336 4.4192131-.8084009 6.5749946l-.1347335.5658806c-.3565711 1.0382301-.4762654 2.1430998-.3503071 3.2336039 0 .5658807.2155736 1.1048147.3233604 1.6437486.1272467.4697094.2262287.9466227.2964137 1.4281751.4396511 4.2826027-1.1214752 8.5284685-4.2306318 11.5062404v-3.044977c.099509-4.6473949-3.4492407-8.5628487-8.0840096-8.9193573h-.4850406c-4.5904502.245848-8.1630966 4.0804885-8.0840096 8.676837v3.1527638c-3.0041137-2.9814506-4.4996447-7.1610141-4.0689516-11.3715069.0637478-.4806102.1537042-.957379.269467-1.4281751.1451872-.5414725.2621142-1.0901298.3503071-1.6437486.1278067-1.0904968.0080681-2.1957768-.3503071-3.2336039v-.5658806c-.5338217-2.1510097-.8052636-4.3587368-.808401-6.5749946-.1391913-1.485837.0446571-2.984201.538934-4.3923119z" fill="#55311b" mask="url(#a)"/></svg>

<?xml version="1.0" encoding="UTF-8"?>
<svg width="88px" height="88px" viewBox="0 0 88 88" version="1.1" xmlns="http://www.w3.org/2000/svg" xmlns:xlink="http://www.w3.org/1999/xlink">
    <title>general</title>
    <defs>
        <rect id="path-1" x="0" y="0" width="88" height="88"></rect>
    </defs>
    <g id="Design" stroke="none" stroke-width="1" fill="none" fill-rule="evenodd">
        <g id="Icons-for-tabs" transform="translate(-311.000000, -216.000000)">
            <g id="Group-7" transform="translate(-3.000000, 0.000000)">
                <g id="general" transform="translate(314.000000, 216.000000)">
                    <mask id="mask-2" fill="white">
                        <use xlink:href="#path-1"></use>
                    </mask>
                    <g id="Rectangle" opacity="0.5"></g>
                    <path d="M26.5958827,42.4758751 C26.7268164,42.8020437 26.7997706,43.1485762 26.8114563,43.4998496 C26.8114563,43.9040501 26.6497761,44.3082506 26.568936,44.6855044 C26.3904094,45.40427 26.2554305,46.1331563 26.1647356,46.868187 C25.4337001,53.8893413 28.6227379,60.7437017 34.4643188,64.7069016 C35.1787341,65.1929045 36.0255588,65.4469519 36.8895217,65.4344625 L37.3206689,65.4344625 C39.4636037,65.0768451 41.0287543,63.2146586 41.0123666,61.0421506 L41.0123666,55.6528108 C40.9758593,54.8164446 41.2734903,53.9998984 41.8396394,53.3832003 C42.4057884,52.7665023 43.1939654,52.4002934 44.0303969,52.3653136 C45.7625589,52.6143455 47.0155024,54.1483231 46.9136937,55.8953311 L46.9136937,61.096044 C46.9355308,63.3802314 48.7045443,65.2663982 50.9826452,65.4344625 C51.8926917,65.4795595 52.7922845,65.2238858 53.5425816,64.7069016 C60.1987733,60.4185738 63.3846235,52.3672586 61.4649111,44.6855044 C61.4649111,44.2813039 61.2762842,43.9040501 61.2223908,43.4998496 C61.2343059,43.1510774 61.2978729,42.8059998 61.4110177,42.4758751 L61.6265913,41.7213675 C62.2220048,39.1673066 62.5382375,36.5561279 62.5697257,33.9337715 C62.6557575,31.6157393 62.2326461,29.307023 61.3301776,27.1701501 C59.9992772,24.4562764 57.2901702,22.6881187 54.2701425,22.5622646 C50.7946524,22.5182761 47.3556161,23.2743109 44.2190238,24.7718939 L43.4106228,24.4754802 L42.9794756,24.3138001 C42.0902346,24.0173864 41.1740468,23.694026 40.2848058,23.424559 C39.2687758,23.1216141 38.2334694,22.8875449 37.1859354,22.7239448 C36.6239526,22.6389471 36.0566481,22.593923 35.4882934,22.5892113 C35.1110396,22.5892113 33.6020244,22.5892113 33.2247707,22.5892113 C32.5530789,22.6465776 31.8917708,22.7915218 31.2576616,23.0203585 C30.2540533,23.3470333 29.3342466,23.8897193 28.5629918,24.6102137 C27.770181,25.3816614 27.1302082,26.2959082 26.6767228,27.3048836 C25.7485274,29.4339864 25.3243327,31.7486145 25.4371747,34.068505 C25.4433274,36.701367 25.7598909,39.3243213 26.3803091,41.8830477 L26.5958827,42.4758751 Z M31.5540753,29.5145129 C31.7198864,29.1472615 31.9581926,28.817299 32.2546895,28.5444318 C32.4767178,28.3277395 32.7434267,28.162196 33.0361438,28.0593912 C33.2147127,28.0315881 33.3965088,28.0315881 33.5750777,28.0593912 C33.9253848,28.0593912 35.0571462,28.0593912 35.3266132,28.0593912 L36.4044811,28.0593912 C37.1973302,28.1852652 37.9806199,28.3653318 38.7488439,28.5983252 C39.5841916,28.8408455 40.3925926,29.1372591 41.2548869,29.4336728 L41.6590874,29.4336728 C42.4587492,29.743814 43.2259384,30.1319215 43.9495568,30.5923809 C46.0303238,32.0962009 48.589594,32.7863412 51.1443254,32.5325432 C52.1490404,32.3191228 52.9450487,31.5530887 53.1968571,30.557301 C53.4486654,29.5615134 53.1124751,28.5091762 52.3299801,27.8438176 C52.8322306,27.8048528 53.3367448,27.8048528 53.8389953,27.8438176 C54.9734023,27.7909703 56.0313581,28.4151642 56.5336652,29.4336728 C57.0823934,30.8572447 57.3034368,32.3861283 57.1803859,33.9068248 C57.1506202,36.1213524 56.8795523,38.3260379 56.371985,40.4818194 L56.2372515,41.0477 C55.8806804,42.0859301 55.7609861,43.1907998 55.8869444,44.2813039 C55.8869444,44.8471846 56.102518,45.3861186 56.2103048,45.9250525 C56.3375515,46.3947619 56.4365335,46.8716752 56.5067185,47.3532276 C56.9463696,51.6358303 55.3852433,55.8816961 52.2760867,58.859468 L52.2760867,55.814491 C52.3755957,51.1670961 48.826846,47.2516423 44.1920771,46.8951337 L43.7070365,46.8951337 C39.1165863,47.1409817 35.5439399,50.9756222 35.6230269,55.5719707 L35.6230269,58.7247345 C32.6189132,55.7432839 31.1233822,51.5637204 31.5540753,47.3532276 C31.6178231,46.8726174 31.7077795,46.3958486 31.8235423,45.9250525 C31.9687295,45.38358 32.0856565,44.8349227 32.1738494,44.2813039 C32.3016561,43.1908071 32.1819175,42.0855271 31.8235423,41.0477 L31.8235423,40.4818194 C31.2897206,38.3308097 31.0182787,36.1230826 31.0151413,33.9068248 C30.87595,32.4209878 31.0597984,30.9226238 31.5540753,29.5145129 L31.5540753,29.5145129 Z" id="Shape" fill="#55311B" fill-rule="nonzero" mask="url(#mask-2)"></path>
                </g>
            </g>
        </g>
    </g>
</svg>
